X:8
T:Smed Jens vals
R:vals
Z:2001 Brian Wilson <baab@mediaone.net>
M:3/4
L:1/8
K:D
|: "D"f3f a2 | "D"d4 f2 | "A"e2 d2 e2 | "D"f2- fe dc
| "G"B2 G2 B2 | "D"A3A AB | "A"A2 E2 G2 | "D"F3E D2
| "D"f3f fa | "D"d4 f2 | "A"e2 d2 e2 | "D"f3e dc
| "G"B2 G2 B2 | "D"A3A d2 | "A"c2 Ac ec |[1 "D"d4 A2 :| "D"d4 FG |
|: "D"A2 F3 G | "D"A2 fe dc | "G"B2 G3 A | "G"B2 ed cB
| "A"A3G FG | "A"A2 E2 G2 | "D"F3E FE | "D"D3E FG
| "D"A2 F3 G | "D"A2 fe dc | "G"B2 G3 A | "G"B2 ed cB
| "A"A3G FG | "A"A2 B2 c2 | "D"d3e dc |[1 "D"d4 FG :| "D"d4 A2 ||
